X:145
T:Cuz Teahan's Frolics
C:Paul Deloughery
B:Terry "Cuz" Teahan "Sliabh Luachra on Parade" 1980
Z:Patrick Cavanagh
M:4/4
L:1/8
R:Hornpipe
K:D
Ad | f2dA F2Ad | cBBG E2FG | AdfA dFBA | G2E2 E2Ad | 
f2dA F2Ad | cBBG E2FG | ABdB cAGE | F2D2 D2 :| 
FG | A/B/A F2 F2GA | G2E2 E2FG | AdfA dFBA | G/A/G E2 E2FG | 
A/B/A F2 F2GA | B/c/B G2 G2AB | cAdB cAGE | F2D2 D2 :|| 

